src/components/sections/images/img_icon_32x32.svg

<svg width="32" height="32" viewBox="0 0 32 32" fill="none" xmlns="http://www.w3.org/2000/svg">
<path fill-rule="evenodd" clip-rule="evenodd" d="M16.6633 1.73246C16.228 1.62059 15.7714 1.62059 15.336 1.73246C14.8311 1.86221 14.3999 2.17865 14.0562 2.43092L13.9607 2.50081L3.15948 10.3562C2.79314 10.6226 2.45301 10.8699 2.20306 11.0853C2.0085 11.253 1.53894 11.6596 1.41843 12.2925C1.29038 12.9649 1.51516 13.6562 2.01425 14.1247C2.48396 14.5657 3.10283 14.6183 3.3588 14.6395C3.68763 14.6666 4.10814 14.6666 4.56105 14.6666H27.4382C27.8912 14.6666 28.3117 14.6666 28.6405 14.6395C28.8965 14.6183 29.5154 14.5657 29.9851 14.1247C30.4842 13.6562 30.709 12.9649 30.5809 12.2925C30.4604 11.6596 29.9909 11.253 29.7963 11.0853C29.5463 10.8699 29.2062 10.6226 28.8398 10.3562L18.0387 2.50081L17.9432 2.43092C17.5994 2.17865 17.1683 1.86221 16.6633 1.73246ZM15.5291 4.65743C15.7693 4.48278 15.8954 4.39197 15.9907 4.33226L15.9997 4.32672L16.0086 4.33226C16.1039 4.39197 16.2301 4.48278 16.4702 4.65744L26.5661 11.9999H5.43325L15.5291 4.65743Z" fill="black"/>
<path d="M21.333 17.9999C21.333 17.2635 20.7361 16.6666 19.9997 16.6666C19.2633 16.6666 18.6663 17.2635 18.6663 17.9999V26.6666H13.333V17.9999C13.333 17.2635 12.7361 16.6666 11.9997 16.6666C11.2633 16.6666 10.6663 17.2635 10.6663 17.9999V26.6666H6.66634V17.9999C6.66634 17.2635 6.06939 16.6666 5.33301 16.6666C4.59663 16.6666 3.99967 17.2635 3.99967 17.9999V26.6666H2.66634C1.92996 26.6666 1.33301 27.2635 1.33301 27.9999C1.33301 28.7363 1.92996 29.3332 2.66634 29.3332H29.333C30.0694 29.3332 30.6663 28.7363 30.6663 27.9999C30.6663 27.2635 30.0694 26.6666 29.333 26.6666H27.9997V17.9999C27.9997 17.2635 27.4027 16.6666 26.6663 16.6666C25.93 16.6666 25.333 17.2635 25.333 17.9999V26.6666H21.333V17.9999Z" fill="black"/>
</svg>

<svg width="32" height="32" fill="none" xmlns="http://www.w3.org/2000/svg"><path fill-rule="evenodd" clip-rule="evenodd" d="M16.663 1.732a2.667 2.667 0 0 0-1.327 0c-.505.13-.936.447-1.28.699l-.095.07-10.802 7.855c-.366.267-.706.514-.956.73-.194.167-.664.574-.785 1.207a2 2 0 0 0 .596 1.832c.47.44 1.089.493 1.345.514.329.028.75.028 1.202.028h22.877c.453 0 .874 0 1.203-.027.256-.022.874-.074 1.344-.515a2 2 0 0 0 .596-1.832c-.12-.633-.59-1.04-.785-1.208a15.98 15.98 0 0 0-.956-.729L18.039 2.501l-.096-.07c-.344-.252-.775-.569-1.28-.699zM15.53 4.657c.24-.174.366-.265.462-.325L16 4.327l.009.005c.095.06.221.15.461.325L26.566 12H5.433L15.53 4.657z" fill="#000"/><path d="M21.333 18a1.333 1.333 0 1 0-2.667 0v8.667h-5.333V18a1.333 1.333 0 1 0-2.667 0v8.667h-4V18A1.333 1.333 0 1 0 4 18v8.667H2.666a1.333 1.333 0 1 0 0 2.666h26.667a1.333 1.333 0 1 0 0-2.666H28V18a1.333 1.333 0 0 0-2.667 0v8.667h-4V18z" fill="#000"/></svg>
